resources/svg/deliver.svg

<svg xmlns="http://www.w3.org/2000/svg" viewBox="0 0 24 24" fill="currentColor"><path fill="none" stroke="currentColor" stroke-width="2" d="M3,18 L1,18 L1,3 L14,3 L14,17 M14,18 L9,18 M6,21 C7.65685425,21 9,19.6568542 9,18 C9,16.3431458 7.65685425,15 6,15 C4.34314575,15 3,16.3431458 3,18 C3,19.6568542 4.34314575,21 6,21 Z M17,21 C18.6568542,21 20,19.6568542 20,18 C20,16.3431458 18.6568542,15 17,15 C15.3431458,15 14,16.3431458 14,18 C14,19.6568542 15.3431458,21 17,21 Z M14,8 L19,8 L23,13 L23,18 L20,18"/></svg>

<svg viewBox="0 0 24 24"><path fill="none" stroke="currentColor" stroke-width="2" d="M3 18H1V3h13v14m0 1H9m-3 3a3 3 0 1 0 0-6a3 3 0 0 0 0 6zm11 0a3 3 0 1 0 0-6a3 3 0 0 0 0 6zM14 8h5l4 5v5h-3"/></svg>
